archdroid-icon-theme/Archdroid-Cyan/apps/scalable/preferences-system-network-proxy.svg

<svg xmlns="http://www.w3.org/2000/svg" fill="#00BCD4" viewBox="0 0 48 48"><path d="m18.99 23l-3.99 4 3.99 4v-3h7.01v-2h-7.01v-3m14.01-2l-3.99-4v3h-7.01v2h7.01v3l3.99-4m2.54-10.04l-3.08 2.55 8.7 10.49-8.7 10.48 3.08 2.55 10.82-13.03-10.82-13.04m-20 2.56l-3.08-2.55-10.82 13.03 10.82 13.04 3.08-2.55-8.7-10.49 8.7-10.48"/></svg>

<?xml version="1.0" encoding="UTF-8" standalone="no"?>
<svg
   xmlns:dc="http://purl.org/dc/elements/1.1/"
   xmlns:cc="http://creativecommons.org/ns#"
   xmlns:rdf="http://www.w3.org/1999/02/22-rdf-syntax-ns#"
   xmlns:svg="http://www.w3.org/2000/svg"
   xmlns="http://www.w3.org/2000/svg"
   xmlns:sodipodi="http://sodipodi.sourceforge.net/DTD/sodipodi-0.dtd"
   xmlns:inkscape="http://www.inkscape.org/namespaces/inkscape"
   fill="#00BCD4"
   width="48"
   height="48"
   viewBox="0 0 48 48"
   id="svg2"
   version="1.1"
   inkscape:version="0.91 r13725"
   sodipodi:docname="preferences-system-network-proxy.svg">
  <metadata
     id="metadata10">
    <rdf:RDF>
      <cc:Work
         rdf:about="">
        <dc:format>image/svg+xml</dc:format>
        <dc:type
           rdf:resource="http://purl.org/dc/dcmitype/StillImage" />
      </cc:Work>
    </rdf:RDF>
  </metadata>
  <defs
     id="defs8" />
  <sodipodi:namedview
     pagecolor="#ffffff"
     bordercolor="#666666"
     borderopacity="1"
     objecttolerance="10"
     gridtolerance="10"
     guidetolerance="10"
     inkscape:pageopacity="0"
     inkscape:pageshadow="2"
     inkscape:window-width="1366"
     inkscape:window-height="713"
     id="namedview6"
     showgrid="false"
     inkscape:snap-bbox="true"
     inkscape:bbox-nodes="true"
     inkscape:zoom="9.049223293115016"
     inkscape:cx="9.063727537608603"
     inkscape:cy="26.84337560227383"
     inkscape:window-x="0"
     inkscape:window-y="30"
     inkscape:window-maximized="1"
     inkscape:current-layer="svg2" />
  <path
     id="path4154"
     style="fill:#00BCD4"
     d="m 18.99000000000001,23 -3.99,4 3.99,4 0,-3 L 26,28 l 0,-2 -7.00999999999999,0 0,-3 z M 33,21 l -3.99,-4 0,3 -7.00999999999999,0 0,2 L 29.01,22 l 0,3 L 33,21 Z M 35.54,10.96 32.46,13.51 41.16,24 32.46,34.48000000000001 35.53999999999999,37.03 46.36,24 35.54,10.96 Z m -20,2.56 L 12.46,10.97 1.64,24 12.46,37.04 15.54,34.49 6.84,24 15.54,13.52 Z" />
</svg>
